local/share/icons/dracula-icons-main/24/places/emptytrash.svg

<?xml version="1.0" encoding="UTF-8"?>
<svg xmlns="http://www.w3.org/2000/svg" xmlns:xlink="http://www.w3.org/1999/xlink" width="24" height="24" viewBox="0 0 24 24">
<path fill-rule="nonzero" fill="rgb(100%, 100%, 100%)" fill-opacity="1" d="M 10 4.996094 C 9 4.996094 9 5.996094 9 5.996094 L 6 5.996094 C 6 5.996094 5 6 5 7 L 5 8.003906 L 18 8 L 18 7 C 18 6 17 5.996094 17 5.996094 L 14 5.996094 C 14 5.996094 14 4.996094 13 4.996094 Z M 6 9.003906 L 6 18.003906 C 6 18.527344 6.476562 19.003906 7 19.003906 L 16 19.003906 C 16.523438 19.003906 17 18.527344 17 18.003906 L 17 9.003906 L 15 9.003906 L 15 17.003906 L 8 17.003906 L 8 9.003906 Z M 6 9.003906 "/>
</svg>

<svg width="24" height="24" version="1.1" viewBox="0 0 24 24" xmlns="http://www.w3.org/2000/svg">
 <defs>
  <style id="current-color-scheme" type="text/css">.ColorScheme-Text { color:#FFFFFF; } .ColorScheme-Highlight { color:#5294e2; }</style>
 </defs>
 <path class="ColorScheme-Text" d="m10 4.9971c-1 0-1 1-1 1h-3s-1 0.00155-1 1.002v1.0039l13-0.00391v-1c0-1-1-1.002-1-1.002h-3s0-1-1-1zm-4 4.0059v9c5e-5 0.52358 0.47642 0.99995 1 1h9c0.52358-5e-5 0.99995-0.47642 1-1v-9h-2v8h-7v-8z" fill="currentColor"/>
</svg>
